storage/app/icons/phosphoricons/thin/list-plus-thin.svg

<svg xmlns="http://www.w3.org/2000/svg" fill="currentColor" viewBox="0 0 256 256"><path d="M36 64a4 4 0 0 1 4-4h176a4 4 0 0 1 0 8H40a4 4 0 0 1-4-4m4 68h176a4 4 0 0 0 0-8H40a4 4 0 0 0 0 8m104 56H40a4 4 0 0 0 0 8h104a4 4 0 0 0 0-8m88 0h-20v-20a4 4 0 0 0-8 0v20h-20a4 4 0 0 0 0 8h20v20a4 4 0 0 0 8 0v-20h20a4 4 0 0 0 0-8"/></svg>

<svg xmlns="http://www.w3.org/2000/svg" viewBox="0 0 256 256" fill="currentColor"><path d="M36,64a4,4,0,0,1,4-4H216a4,4,0,0,1,0,8H40A4,4,0,0,1,36,64Zm4,68H216a4,4,0,0,0,0-8H40a4,4,0,0,0,0,8Zm104,56H40a4,4,0,0,0,0,8H144a4,4,0,0,0,0-8Zm88,0H212V168a4,4,0,0,0-8,0v20H184a4,4,0,0,0,0,8h20v20a4,4,0,0,0,8,0V196h20a4,4,0,0,0,0-8Z"/></svg>
